img/Email-hover.svg

<svg width="163" height="163" viewBox="0 0 163 163" fill="none" xmlns="http://www.w3.org/2000/svg">
<circle cx="81.5" cy="81.5" r="81.5" fill="#FFEAC0"/>
<g clip-path="url(#clip0)">
<path d="M67.6406 56.4835H115.13C116.555 56.4835 117.923 57.0533 118.932 58.0685C119.941 59.0839 120.508 60.4616 120.508 61.8988V90.798H67.6406V56.4835Z" stroke="#3F3D56"/>
<path d="M66.0063 56.4835C69.3255 56.4835 72.5094 57.8103 74.8574 60.1729C77.2055 62.5356 78.5252 65.7408 78.5252 69.0836V84.8868C78.5252 86.4555 77.9059 87.9594 76.8044 89.0677C75.7031 90.1759 74.21 90.798 72.6538 90.798H59.3588C57.8026 90.798 56.3095 90.1759 55.2081 89.0677C54.1067 87.9594 53.4873 86.4555 53.4873 84.8868V69.0836C53.4873 65.7408 54.807 62.5356 57.1551 60.1729C59.5031 57.8103 62.687 56.4835 66.0063 56.4835Z" stroke="#777777"/>
<path opacity="0.2" d="M66.0063 56.4835C69.3255 56.4835 72.5094 57.8103 74.8574 60.1729C77.2055 62.5356 78.5252 65.7408 78.5252 69.0836V84.8868C78.5252 86.4555 77.9059 87.9594 76.8044 89.0677C75.7031 90.1759 74.21 90.798 72.6538 90.798H59.3588C57.8026 90.798 56.3095 90.1759 55.2081 89.0677C54.1067 87.9594 53.4873 86.4555 53.4873 84.8868V69.0836C53.4873 65.7408 54.807 62.5356 57.1551 60.1729C59.5031 57.8103 62.687 56.4835 66.0063 56.4835Z" stroke="black"/>
<path d="M100.68 51.2854H93.9591H89.9258V59.3281V69.2262H94.8074V59.3281H100.68V51.2854Z" fill="#F3F3F3"/>
<path d="M94.1699 58.1897H93.6699V58.6897V67.3026H91.2739V58.6897V51.7854H94.1699H99.3304V58.1897H94.1699Z" stroke="#3F3D56"/>
<path d="M53.0928 62.7253L51.7539 73.7937L69.6524 75.9859L70.9913 64.9175L53.0928 62.7253Z" fill="url(#paint0_linear)"/>
<path d="M52.3077 73.1388L53.4972 63.3058L70.2926 65.3629L69.1031 75.1959L52.3077 73.1388Z" fill="#FEDE9C" stroke="#3F3D56" stroke-width="0.5"/>
<g opacity="0.6">
<path opacity="0.6" d="M53.7326 65.547L55.9331 65.8165L56.1313 64.1782L53.9307 63.9087L53.7326 65.547Z" fill="#FDB92D"/>
<path opacity="0.6" d="M55.152 68.9546L63.5999 69.9893L63.6641 69.4581L55.2162 68.4234L55.152 68.9546Z" fill="#FDB92D"/>
<path opacity="0.6" d="M57.3011 70.3865L63.4609 71.141L63.5037 70.7873L57.3439 70.0329L57.3011 70.3865Z" fill="#FDB92D"/>
</g>
<path d="M42.8261 87.2184H80.185V91.7756H38.2971C38.2971 90.5669 38.7743 89.4078 39.6236 88.5532C40.473 87.6985 41.6249 87.2184 42.8261 87.2184Z" fill="#F2F2F2"/>
<path d="M60.3856 65.16L59.0466 76.2284L76.9451 78.4206L78.284 67.3522L60.3856 65.16Z" fill="url(#paint1_linear)"/>
<path d="M59.6007 75.5749L60.7902 65.742L77.5855 67.799L76.3961 77.632L59.6007 75.5749Z" fill="#FEDE9C" stroke="#3F3D56" stroke-width="0.5"/>
<g opacity="0.6">
<path opacity="0.6" d="M61.0265 67.9834L63.2271 68.2529L63.4252 66.6146L61.2247 66.3451L61.0265 67.9834Z" fill="#FDB92D"/>
<path opacity="0.6" d="M62.4459 71.3911L70.8938 72.4258L70.9581 71.8946L62.5102 70.8599L62.4459 71.3911Z" fill="#FDB92D"/>
<path opacity="0.6" d="M64.5921 72.8228L70.752 73.5773L70.7947 73.2236L64.6349 72.4692L64.5921 72.8228Z" fill="#FDB92D"/>
</g>
<path d="M44.8901 66.2005L43.0752 81.2037L67.3358 84.1752L69.1507 69.1719L44.8901 66.2005Z" fill="url(#paint2_linear)"/>
<path d="M43.7284 80.3927L45.3622 66.8861L68.3045 69.6961L66.6707 83.2026L43.7284 80.3927Z" fill="#FEDE9C" stroke="#3F3D56" stroke-width="0.5"/>
<g opacity="0.6">
<path opacity="0.6" d="M45.7589 70.0244L48.7412 70.3896L49.0098 68.1696L46.0274 67.8043L45.7589 70.0244Z" fill="#FDB92D"/>
<path opacity="0.6" d="M47.6801 74.6448L59.1318 76.0474L59.219 75.3271L47.7672 73.9245L47.6801 74.6448Z" fill="#FDB92D"/>
<path opacity="0.6" d="M50.5942 76.5847L58.9446 77.6074L59.0027 77.1267L50.6524 76.104L50.5942 76.5847Z" fill="#FDB92D"/>
</g>
<path d="M54.7761 69.5006L52.9612 84.5039L77.2217 87.4753L79.0367 72.4721L54.7761 69.5006Z" fill="url(#paint3_linear)"/>
<path d="M53.6126 83.6957L55.2465 70.1891L78.1888 72.9991L76.5549 86.5056L53.6126 83.6957Z" fill="#FEDE9C" stroke="#3F3D56" stroke-width="0.5"/>
<g opacity="0.6">
<path opacity="0.6" d="M55.6444 73.3267L58.6267 73.692L58.8953 71.472L55.9129 71.1067L55.6444 73.3267Z" fill="#FDB92D"/>
<path opacity="0.6" d="M57.5656 77.9471L69.0173 79.3497L69.1045 78.6295L57.6527 77.2268L57.5656 77.9471Z" fill="#FDB92D"/>
<path opacity="0.6" d="M60.4795 79.8871L68.8298 80.9098L68.888 80.4291L60.5376 79.4064L60.4795 79.8871Z" fill="#FDB92D"/>
</g>
<path opacity="0.2" d="M65.8675 56.1261C64.1644 56.1247 62.4777 56.4607 60.9036 57.1149C61.5167 57.0264 62.1353 56.9817 62.7547 56.9811V56.9811C64.4644 56.9811 66.1574 57.32 67.7369 57.9783C69.3164 58.6366 70.7516 59.6016 71.9605 60.818C73.1695 62.0345 74.1284 63.4786 74.7827 65.068C75.437 66.6574 75.7737 68.3608 75.7737 70.0812V90.8749H78.8865V69.2261C78.8865 65.7518 77.5148 62.4197 75.0733 59.963C72.6318 57.5063 69.3203 56.1261 65.8675 56.1261Z" fill="black"/>
<path d="M41.6693 87.2408H78.5282V90.798H37.6711C37.7811 89.9055 38.1836 89.07 38.8215 88.4281C39.5774 87.6675 40.6018 87.2408 41.6693 87.2408Z" stroke="#3F3D56"/>
<path opacity="0.2" d="M41.6693 86.9908H78.7782V91.048H37.3976C37.4583 89.9964 37.9003 89.0004 38.6442 88.2518C39.4468 87.4443 40.535 86.9908 41.6693 86.9908Z" stroke="#3F3D56" stroke-width="0.5"/>
<path d="M109.429 59.2631L109 59.4739L109.049 59.3852L109.012 59.3969L109.065 59.3576L114.848 49L117.805 51.5374L120.343 53.9003L119.614 54.258L120.432 55.7107L109.429 59.2631Z" fill="#F2F2F2"/>
<path d="M117.513 51.8079L119.831 53.9716L109.322 59.2282L114.915 52.0158L117.513 51.8079Z" fill="#FEDE9C"/>
<path d="M117.135 51.8129L110.296 58.0088L114.876 49.8751L117.135 51.8129Z" stroke="#3F3D56" stroke-width="0.5"/>
<path d="M118.086 52.8955L119.534 55.5031L110.71 58.4362L118.086 52.8955Z" stroke="#3F3D56" stroke-width="0.5"/>
<path d="M59.5826 56.0036L60.2734 56.1113L60.1664 56.0095H60.2257L60.1332 55.9775L47.581 44L44.5347 48.8378L42 53.251L43.1734 53.4342L42.6532 55.8248L59.5826 56.0036Z" fill="#F2F2F2"/>
<path d="M45.0607 49.0894L42.7456 53.1274L59.7169 55.9077L48.7861 48.2489L45.0607 49.0894Z" fill="#FEDE9C"/>
<path d="M45.4234 48.9825L47.8973 45.0555L58.4305 55.0336L45.4234 48.9825Z" stroke="#3F3D56" stroke-width="0.5"/>
<path d="M87.9656 140.218L87.9656 91.4828L80.697 91.4828L80.697 140.218L87.9656 140.218Z" fill="#F2F2F2"/>
<path d="M44.6408 50.708L58.1464 55.5352L43.6787 55.2564L44.6408 50.708Z" stroke="#3F3D56" stroke-width="0.5"/>
<path d="M79.5281 91.7981H87.5846V137.647H79.5281V91.7981Z" stroke="#3F3D56"/>
</g>
<defs>
<linearGradient id="paint0_linear" x1="-3694.49" y1="6588.22" x2="-3525.37" y2="5207.47" gradientUnits="userSpaceOnUse">
<stop stop-color="#808080" stop-opacity="0.25"/>
<stop offset="0.54" stop-color="#808080" stop-opacity="0.12"/>
<stop offset="1" stop-color="#808080" stop-opacity="0.1"/>
</linearGradient>
<linearGradient id="paint1_linear" x1="-3151.65" y1="6849.61" x2="-2982.53" y2="5468.86" gradientUnits="userSpaceOnUse">
<stop stop-color="#808080" stop-opacity="0.25"/>
<stop offset="0.54" stop-color="#808080" stop-opacity="0.12"/>
<stop offset="1" stop-color="#808080" stop-opacity="0.1"/>
</linearGradient>
<linearGradient id="paint2_linear" x1="-5654.49" y1="10268.2" x2="-5343.77" y2="7731.27" gradientUnits="userSpaceOnUse">
<stop stop-color="#808080" stop-opacity="0.25"/>
<stop offset="0.54" stop-color="#808080" stop-opacity="0.12"/>
<stop offset="1" stop-color="#808080" stop-opacity="0.1"/>
</linearGradient>
<linearGradient id="paint3_linear" x1="-4653.42" y1="10747.6" x2="-4342.71" y2="8210.73" gradientUnits="userSpaceOnUse">
<stop stop-color="#808080" stop-opacity="0.25"/>
<stop offset="0.54" stop-color="#808080" stop-opacity="0.12"/>
<stop offset="1" stop-color="#808080" stop-opacity="0.1"/>
</linearGradient>
<clipPath id="clip0">
<rect width="106" height="106" fill="white" transform="translate(28 33)"/>
</clipPath>
</defs>
</svg>

<svg width="163" height="163" fill="none" xmlns="http://www.w3.org/2000/svg"><circle cx="81.5" cy="81.5" r="81.5" fill="#FFEAC0"/><g clip-path="url(#clip0)"><path d="M67.64 56.483h47.49a5.36 5.36 0 013.802 1.586 5.434 5.434 0 011.576 3.83v28.899H67.641V56.483z" stroke="#3F3D56"/><path d="M66.006 56.483c3.32 0 6.503 1.327 8.851 3.69a12.641 12.641 0 013.668 8.91v15.804c0 1.569-.62 3.072-1.72 4.18a5.851 5.851 0 01-4.151 1.731H59.359a5.852 5.852 0 01-4.15-1.73 5.932 5.932 0 01-1.722-4.181V69.084c0-3.343 1.32-6.548 3.668-8.911a12.478 12.478 0 018.851-3.69z" stroke="#777"/><path opacity=".2" d="M66.006 56.483c3.32 0 6.503 1.327 8.851 3.69a12.641 12.641 0 013.668 8.91v15.804c0 1.569-.62 3.072-1.72 4.18a5.851 5.851 0 01-4.151 1.731H59.359a5.852 5.852 0 01-4.15-1.73 5.932 5.932 0 01-1.722-4.181V69.084c0-3.343 1.32-6.548 3.668-8.911a12.478 12.478 0 018.851-3.69z" stroke="#000"/><path d="M100.68 51.285H89.926v17.941h4.881v-9.898h5.873v-8.043z" fill="#F3F3F3"/><path d="M94.17 58.19h-.5v9.113h-2.396V51.785h8.056v6.405h-5.16z" stroke="#3F3D56"/><path d="M53.093 62.725l-1.34 11.069 17.9 2.192 1.338-11.069-17.898-2.192z" fill="url(#paint0_linear)"/><path d="M52.308 73.139l1.19-9.833 16.795 2.057-1.19 9.833-16.795-2.057z" fill="#FEDE9C" stroke="#3F3D56" stroke-width=".5"/><path opacity=".6" d="M53.733 65.547l2.2.27.198-1.639-2.2-.27-.198 1.639zm1.419 3.408l8.448 1.034.064-.53-8.448-1.036-.064.532zm2.149 1.431l6.16.755.043-.354-6.16-.754-.043.353z" fill="#FDB92D"/><path d="M42.826 87.218h37.359v4.558H38.297c0-1.21.477-2.368 1.327-3.223a4.515 4.515 0 013.202-1.335z" fill="#F2F2F2"/><path d="M60.386 65.16l-1.34 11.068 17.9 2.193 1.338-11.069-17.898-2.192z" fill="url(#paint1_linear)"/><path d="M59.6 75.575l1.19-9.833 16.795 2.057-1.189 9.833-16.795-2.057z" fill="#FEDE9C" stroke="#3F3D56" stroke-width=".5"/><path opacity=".6" d="M61.026 67.983l2.201.27.198-1.638-2.2-.27-.199 1.638zm1.42 3.408l8.448 1.035.064-.531-8.448-1.035-.064.531zm2.146 1.432l6.16.754.043-.353-6.16-.755-.043.354z" fill="#FDB92D"/><path d="M44.89 66.2l-1.815 15.004 24.26 2.971 1.816-15.003L44.89 66.2z" fill="url(#paint2_linear)"/><path d="M43.728 80.393l1.634-13.507 22.943 2.81-1.634 13.507-22.943-2.81z" fill="#FEDE9C" stroke="#3F3D56" stroke-width=".5"/><path opacity=".6" d="M45.759 70.024l2.982.366.269-2.22-2.983-.366-.268 2.22zm1.921 4.621l11.452 1.402.087-.72-11.452-1.403-.087.72zm2.914 1.94l8.35 1.022.059-.48-8.35-1.023-.059.48z" fill="#FDB92D"/><path d="M54.776 69.5l-1.815 15.004 24.26 2.971 1.816-15.003-24.26-2.971z" fill="url(#paint3_linear)"/><path d="M53.613 83.696l1.633-13.507L78.19 73l-1.634 13.507-22.942-2.81z" fill="#FEDE9C" stroke="#3F3D56" stroke-width=".5"/><path opacity=".6" d="M55.644 73.327l2.983.365.268-2.22-2.982-.365-.269 2.22zm1.922 4.62l11.451 1.403.088-.72-11.452-1.403-.087.72zm2.914 1.94l8.35 1.023.058-.48-8.35-1.024-.058.481z" fill="#FDB92D"/><path opacity=".2" d="M65.868 56.126a12.905 12.905 0 00-4.964.989 12.95 12.95 0 016.833.863 13.014 13.014 0 014.224 2.84 13.106 13.106 0 012.822 4.25 13.17 13.17 0 01.99 5.013v20.794h3.114V69.226c0-3.474-1.372-6.806-3.814-9.263a12.978 12.978 0 00-9.205-3.837z" fill="#000"/><path d="M41.67 87.24h36.858v3.558H37.671a4.068 4.068 0 011.15-2.37 4.015 4.015 0 012.848-1.187z" stroke="#3F3D56"/><path opacity=".2" d="M41.67 86.99h37.108v4.058h-41.38a4.32 4.32 0 011.246-2.796 4.265 4.265 0 013.025-1.261z" stroke="#3F3D56" stroke-width=".5"/><path d="M109.429 59.263l-.429.21.049-.088-.037.012.053-.04L114.848 49l2.957 2.537 2.538 2.363-.729.358.818 1.453-11.003 3.552z" fill="#F2F2F2"/><path d="M117.513 51.808l2.318 2.164-10.509 5.256 5.593-7.212 2.598-.208z" fill="#FEDE9C"/><path d="M117.135 51.813l-6.839 6.196 4.58-8.134 2.259 1.938zm.951 1.082l1.448 2.608-8.824 2.933 7.376-5.54z" stroke="#3F3D56" stroke-width=".5"/><path d="M59.583 56.004l.69.107-.107-.101h.06l-.093-.032L47.581 44l-3.046 4.838L42 53.25l1.173.183-.52 2.39 16.93.18z" fill="#F2F2F2"/><path d="M45.06 49.09l-2.314 4.037 16.97 2.78-10.93-7.658-3.725.84z" fill="#FEDE9C"/><path d="M45.423 48.983l2.474-3.927 10.534 9.978-13.008-6.051z" stroke="#3F3D56" stroke-width=".5"/><path d="M87.966 140.218V91.483h-7.269v48.735h7.269z" fill="#F2F2F2"/><path d="M44.64 50.708l13.506 4.827-14.467-.279.962-4.548z" stroke="#3F3D56" stroke-width=".5"/><path d="M79.528 91.798h8.057v45.849h-8.057V91.798z" stroke="#3F3D56"/></g><defs><linearGradient id="paint0_linear" x1="-3694.49" y1="6588.22" x2="-3525.37" y2="5207.47" gradientUnits="userSpaceOnUse"><stop stop-color="gray" stop-opacity=".25"/><stop offset=".54" stop-color="gray" stop-opacity=".12"/><stop offset="1" stop-color="gray" stop-opacity=".1"/></linearGradient><linearGradient id="paint1_linear" x1="-3151.65" y1="6849.61" x2="-2982.53" y2="5468.86" gradientUnits="userSpaceOnUse"><stop stop-color="gray" stop-opacity=".25"/><stop offset=".54" stop-color="gray" stop-opacity=".12"/><stop offset="1" stop-color="gray" stop-opacity=".1"/></linearGradient><linearGradient id="paint2_linear" x1="-5654.49" y1="10268.2" x2="-5343.77" y2="7731.27" gradientUnits="userSpaceOnUse"><stop stop-color="gray" stop-opacity=".25"/><stop offset=".54" stop-color="gray" stop-opacity=".12"/><stop offset="1" stop-color="gray" stop-opacity=".1"/></linearGradient><linearGradient id="paint3_linear" x1="-4653.42" y1="10747.6" x2="-4342.71" y2="8210.73" gradientUnits="userSpaceOnUse"><stop stop-color="gray" stop-opacity=".25"/><stop offset=".54" stop-color="gray" stop-opacity=".12"/><stop offset="1" stop-color="gray" stop-opacity=".1"/></linearGradient><clipPath id="clip0"><path fill="#fff" transform="translate(28 33)" d="M0 0h106v106H0z"/></clipPath></defs></svg>
